X: 20878
T: Jolly Tinker, The
R: reel
M: 4/4
K: Edorian
|:~E3F D3F|E2ec dBAF|~E3F D3F|1 AFDF ABAF:|2 AFDF A2FA||
BABc dABc|dfec dcBA|BABd e2Be|egfd edBA|
FABc dABc|dfec dcBA|BABd e2Be|egfd edBA||
Beed BAFA|Beed Bc/B/ A2|Beed BcdB|AFDF A2FA|
Beed Beed|Beed Bc/B/ A2|Beed BcdB|AFDF A2FA||
BAdA BAFA|BAdA B2FA|BAdA BcdB|AFDF A2FA|
BAdA BAFA|BAdA B2FA|BABc dedB|AFDF A2FA||
B~E3 BAFA|BABc d2cA|B~E3 BcdB|AFDF A2FA|
B~E3 BAFA|BABc d2cd|Beed BcdB|AFDF A3F||

